X:1
T:The Gospel Train
T:George Crawford Hugg
T:The Gospel Train
T:Public Domain
T:Public Domain
C:George Crawford Hugg
Z:Public Domain
%%score ( 1 2 ) ( 3 4 )
L:1/8
M:4/4
K:G
V:1 treble 
V:2 treble 
V:3 bass 
V:4 bass 
V:1
 (DD) | [DG]2 [DG]2 [DF]2 DD | [DA]2 [DA][DA] [DG]2 ([DA][=FB]) | %3
w: 1.~There’s~a *|runs from the earth to|And ev- ery one may *|
w: 2.~There~is *|pay for a ride on|For Christ has paid the *|
w: 3.~This~train *|noise as it runs thro’|For~it tra- vels on the *|
w: 4.~This *|nev- er been wrecked on|But land- ed all her *|
 [Ec][Ec][Ec][Ec] [DB]2 [DA][^CG] | [DA]6 (DD) | [DG]2 [DG][DG] [DF][DF] D2 | %6
w: ride if they will, It starts from|that fount- *|ne- ver runs dry, And it|
w: fare for us all, The poor and|the need- *|blind and the lame, Can all|
w: road- bed of love, Its crew is|com- posed *|heav- en- ly band, And its|
w: souls in the sky; It can take|all the *|a sin- gle load, Get on|
 [DA][DA] [DA]2 [DG]2 [=FA][FB] | [Ec]2 [EB][EA] [DG][DG] [DF]2 | [DG]6 ||"^Refrain" [GB]2 | %10
w: on the heav- en- ly hill.||||
w: if on Christ they will call.|O sin- ner, get on board|of|the|
w: pow’r is faith from a- bove.||||
w: bid earth’s tri- als good- bye.||||
 [Gd][Gd][Gd][Gd] [Gd]2 [GB][GB] | [Ac]2 [FA]2 [FA]2 [FA][Ac] | [DB]2 [DB][DB] [DA]2 [^CG][CG] | %13
w: |||
w: Gos- pel train, For it runs straight|a- head, nev- er back;|It starts on the sche- dule|
w: |||
w: |||
 [DA]6 D2 | [DG]2 [DG][DG] [DB][DB][DG][DG] | [FA]2 [FA][GB] [FA]2 [GB][Gc] | %16
w: |||
w: ’midst the|or the rain, And it nev- er|runs off of the track. *|
w: |||
w: |||
 [Gd][Gd] [Gd]2 [Gd]2 [FA][FB] | G6 |] %18
w: ||
w: ||
w: ||
w: ||
V:2
 DD | x6 DD | x8 | x8 | x6 DD | x6 D2 | x8 | x8 | x6 || x2 | x8 | x8 | x8 | x6 D2 | x8 | x8 | x8 | %17
w: train that|the sky,|||ain that|stops||||||||||||
w: naught to|this train,|||y, the|go,||||||||wind||||
w: makes no|the land,|||of a|motor||||||||||||
w: train has|the road,|||world at|board,||||||||||||
 G6 |] %18
w: |
w: |
w: |
w: |
V:3
 (D,D,) | [G,B,]2 [G,B,]2 [A,C]2 [D,F,][D,F,] | [D,C]2 [D,C][D,C] [G,B,]2 ([D,F,][G,D]) | %3
 [C,C][C,C][C,C][C,C] G,2 [F,A,][E,A,] | [D,F,]6 (D,D,) | [G,B,]2 [G,B,][G,B,] [A,C][A,C] [D,F,]2 | %6
 [D,C][D,C] [D,C]2 [G,B,]2 [G,B,][G,D] | [C,C]2 [C,C][C,C] [D,B,][D,B,] [D,A,]2 | [G,B,]6 || %9
 [G,D]2 | [G,B,][G,B,][G,B,][G,B,] [G,B,]2 [G,D][G,D] | [D,D]2 [D,D]2 [D,D]2 [D,D][D,D] | %12
 G,2 G,G, [F,A,]2 [E,A,][E,A,] | [D,F,]6 D,2 | [G,B,]2 [G,B,][G,B,] G,G,[B,,G,][B,,G,] | %15
 [D,D]2 [D,D][D,D] [D,D]2 [G,D][G,A,] | [G,B,][G,B,] [G,B,]2 [G,B,]2 [D,C][D,C] | [G,,G,B,]6 |] %18
V:4
 D,D, | x8 | x8 | x4 G,2 x2 | x6 D,D, | x8 | x8 | x8 | x6 || x2 | x8 | x8 | G,2 G,G, x4 | x6 D,2 | %14
 x4 G,G, x2 | x8 | x8 | x6 |] %18

